!!!COM: Palestrina, Giovanni Perluigi da
!!!OPR: In duplicibus minoribus (I)
!!!OTL: Gloria
**kern	**kern	**kern	**kern	**kern
*Ibass	*Itenor	*Itenor	*Icalto	*Icant
!Bassus	!Tenor 2	!Tenor 1	!Altus	!Cantus
*clefF4	*clefGv2	*clefGv2	*clefG2	*clefG2
*k[]	*k[]	*k[]	*k[]	*k[]
*E:phr	*E:phr	*E:phr	*E:phr	*E:phr
*M4/2	*M4/2	*M4/2	*M4/2	*M4/2
=1	=1	=1	=1	=1
1E	0r	1B	1r	0r
2.A	.	1c	1e	.
4G	.	.	.	.
=2	=2	=2	=2	=2
4F	0r	1.A	1f	0r
4E	.	.	.	.
1D	.	.	.	.
.	.	.	2d	.
2E	.	2G	2c	.
=3	=3	=3	=3	=3
2F#	0r	2A	1d	0r
2.G	.	2.B	.	.
.	.	.	1e	.
8F#	.	4A	.	.
8G	.	.	.	.
2A	.	[2A	.	.
=4	=4	=4	=4	=4
0E	1B	2A]	1e	1r
.	.	4G#	.	.
.	.	4F#	.	.
.	2.e	1G#	2r	1b
.	.	.	2e	.
.	4d	.	.	.
=5	=5	=5	=5	=5
1AA	4c	2A	2e	1cc
.	4B	.	.	.
.	1A	1e	2e	.
2r	.	.	[1e	2a
2E	2B	2e	.	2g
=6	=6	=6	=6	=6
2A	2c#	2e	2e]	1a
2D	2.d	4d	2f	.
.	.	4c	.	.
1G	.	2B	2.g	[1b
.	8c	.	.	.
.	8d	.	.	.
.	2e	2E	.	.
.	.	.	4f	.
=7	=7	=7	=7	=7
0A	0c	4A	0e	2b]
.	.	4B	.	.
.	.	4c	.	4a
.	.	4d	.	4g#
.	.	2e	.	1a
.	.	[2A	.	.
=8	=8	=8	=8	=8
[0E	[0B	2A]	[0e	[0b
.	.	2G#	.	.
.	.	1G#	.	.
=9	=9	=9	=9	=9
1E_	1B_	[0G#	1e_	1b_
1E_	1B_	.	1e_	1b_
=10	=10	=10	=10	=10
0E]	0B]	0G#]	0e]	0b]
!! Benedicimus
*Ibass	*Itenor	*Itenor	*Icalto	*Icant
!Bassus	!Tenor 2	!Tenor 1	!Altus	!Cantus
*clefF4	*clefGv2	*clefGv2	*clefG2	*clefG2
*k[]	*k[]	*k[]	*k[]	*k[]
*E:phr	*E:phr	*E:phr	*E:phr	*E:phr
*M4/2	*M4/2	*M4/2	*M4/2	*M4/2
=11	=11	=11	=11	=11
1.E	1B	0r	1r	0r
.	1G	.	1e	.
2C	.	.	.	.
=12	=12	=12	=12	=12
2F	1A	0r	1c	0r
2A	.	.	.	.
2.G	2.B	.	1d	.
4F	4A	.	.	.
=13	=13	=13	=13	=13
2G	2B	0r	2e	0r
1A	1c	.	2.f	.
.	.	.	4e	.
2G	2B	.	[2e	.
=14	=14	=14	=14	=14
1F	1A	2r	2e]	1r
.	.	1A	2d	.
1E	1B	.	2.e	1b
.	.	2G	.	.
.	.	.	4d	.
=15	=15	=15	=15	=15
1r	1r	2c	4e	1g
.	.	.	4f#	.
.	.	2e	2.g	.
1D	2r	2.d	.	1a
.	.	.	4f#	.
.	2d	.	4f#	.
.	.	4c	8e	.
.	.	.	8f#	.
=16	=16	=16	=16	=16
2G	2B	2d	0g	2b
1C	2.G	1e	.	1cc
.	4A	.	.	.
2G	2B	2d	.	[2b
=17	=17	=17	=17	=17
0A	4c	0c	[0e	2b]
.	4d	.	.	.
.	4e	.	.	4a
.	4d	.	.	4g#
.	4c	.	.	1a
.	4B	.	.	.
.	[2A	.	.	.
=18	=18	=18	=18	=18
[0E	2A]	[0B	0e]	[0b
.	4G#	.	.	.
.	4F#	.	.	.
.	1G#	.	.	.
=19	=19	=19	=19	=19
1E_	[0G#	1B_	[0e	1b_
1E_	.	1B_	.	1b_
=20	=20	=20	=20	=20
0E]	0G#]	0B]	0e]	0b]
!! Glorificamus
*Ibass	*Itenor	*Itenor	*Icalto	*Icant
!Bassus	!Tenor 2	!Tenor 1	!Altus	!Cantus
*clefF4	*clefGv2	*clefGv2	*clefG2	*clefG2
*k[]	*k[]	*k[]	*k[]	*k[]
*E:phr	*E:phr	*E:phr	*E:phr	*E:phr
*M4/2	*M4/2	*M4/2	*M4/2	*M4/2
=21	=21	=21	=21	=21
0r	1E	0r	1B	1e
.	2F	.	2A	1d
.	2G	.	2B	.
=22	=22	=22	=22	=22
0r	2C	1r	2c	1e
.	2E	.	2G	.
.	1D	2r	2A	1f
.	.	2A	[2d	.
=23	=23	=23	=23	=23
0r	1r	2B	4d]	1g
.	.	.	8c	.
.	.	.	8d	.
.	.	2c	2e	.
.	1A	2F	1c	1f
.	.	[2A	.	.
=24	=24	=24	=24	=24
1E	2B	4A]	0r	1e
.	.	4G	.	.
.	1c	2G	.	.
2F#	.	2A	.	1d
2G	2B	2B	.	.
=25	=25	=25	=25	=25
2C	4A	4c	1r	1c
.	4G	4B	.	.
2E	1G	4A	.	.
.	.	4G	.	.
1D	.	2A	2r	[1d
.	2F#	[2d	2A	.
=26	=26	=26	=26	=26
1G	1G	4d]	2B	1d]
.	.	4c	.	.
.	.	2B	2.d	.
1r	2r	1A	.	1e
.	.	.	4c	.
.	2A	.	2c	.
=27	=27	=27	=27	=27
2r	2B	1r	2d	2.g
1E	2c	.	1e	.
.	.	.	.	4f
.	2B	2r	.	2g
[2F	2A	2A	4d	[2a
.	.	.	4c	.
=28	=28	=28	=28	=28
2F]	2c	2A	2f	2a]
2G	4B	2B	2d	2.g
.	4A	.	.	.
1C	2G	1c	1e	.
.	.	.	.	4f
.	2A	.	.	[2e
=29	=29	=29	=29	=29
0D	0F	0A	1a	2e]
.	.	.	.	4d
.	.	.	.	4c
.	.	.	2r	1d
.	.	.	2A	.
=30	=30	=30	=30	=30
0AA	[0E	2.c	2A	[0e
.	.	.	2A	.
.	.	4B	.	.
.	.	1A	2c	.
.	.	.	2c	.
=31	=31	=31	=31	=31
[0E	1E_	[0G#	[0B	1e_
.	1E_	.	.	1e_
=32	=32	=32	=32	=32
0E]	0E]	0G#]	0B]	0e]
!! Domine Deus Rex
*Ibass	*Itenor	*Itenor	*Icalto	*Icant
!Bassus	!Tenor 2	!Tenor 1	!Altus	!Cantus
*clefF4	*clefGv2	*clefGv2	*clefG2	*clefG2
*k[]	*k[]	*k[]	*k[]	*k[]
*E:phr	*E:phr	*E:phr	*E:phr	*E:phr
*M4/2	*M4/2	*M4/2	*M4/2	*M4/2
=33	=33	=33	=33	=33
0r	1E	1B	1r	0r
.	2.A	[1c	1e	.
.	4G	.	.	.
=34	=34	=34	=34	=34
0r	4F	2c]	1f	0r
.	4E	.	.	.
.	2F	2A	.	.
.	2G	2B	2d	.
.	2A	[2c	2c	.
=35	=35	=35	=35	=35
0r	2.G	4c]	1d	0r
.	.	8B	.	.
.	.	8A	.	.
.	.	2B	.	.
.	4F	.	.	.
.	4E	1c	1e	.
.	8F	.	.	.
.	8G	.	.	.
.	[2A	.	.	.
=36	=36	=36	=36	=36
1E	2A]	1B	0e	1b
.	2G#	.	.	.
1A	2A	2r	.	1cc
.	2c	2A	.	.
=37	=37	=37	=37	=37
2F	2d	2A	2r	2a
2E	1e	2B	1g	2g
1A	.	1c	.	1a
.	4d	.	2f	.
.	4c	.	.	.
=38	=38	=38	=38	=38
1G	2d	1B	1g	2b
.	2G	.	.	1dd
1r	1A	1r	2f	.
.	.	.	2e	2cc
=39	=39	=39	=39	=39
2r	0r	0r	2d	2.dd
1d	.	.	1f	.
.	.	.	.	4cc
.	.	.	.	2b
2c	.	.	2e	[2a
=40	=40	=40	=40	=40
1d	0r	1r	2f	2a]
.	.	.	4e	4g
.	.	.	4d	4f
2c	.	2r	4e	1g
.	.	.	4c	.
2B	.	[2d	2d	.
=41	=41	=41	=41	=41
1A	2r	2d]	1e	1a
.	2A	2c	.	.
2r	2B	2.d	1r	1r
[2G	4G	.	.	.
.	4A	4c	.	.
=42	=42	=42	=42	=42
2G]	4B	2B	1r	2r
.	4c	.	.	.
2F	1d	2A	.	2a
1E	.	1G	2r	2b
.	2c#	.	[2g	4g
.	.	.	.	4a
=43	=43	=43	=43	=43
1D	1d	1r	2g]	4b
.	.	.	.	4cc
.	.	.	2f	1dd
1r	1A	2r	1e	.
.	.	2A	.	2cc#
=44	=44	=44	=44	=44
1r	0r	2B	1d	2.dd
.	.	4G	.	.
.	.	4A	.	4cc
1G	.	4B	1g	4b
.	.	4c	.	4a
.	.	[2d	.	2b
=45	=45	=45	=45	=45
1A	1r	2d]	2e	1a
.	.	2c	2f	.
2G	1d	2B	4g	1r
.	.	.	4G	.
2F	.	[2A	4A	.
.	.	.	4B	.
=46	=46	=46	=46	=46
1E	1e	2A]	2c	0r
.	.	2G#	2B	.
1F	2d	1A	1r	.
.	2c	.	.	.
=47	=47	=47	=47	=47
2G	4B	0r	1d	1r
.	4c	.	.	.
2G	4d	.	.	.
.	4B	.	.	.
1C	1c	.	1e	1g
=48	=48	=48	=48	=48
0r	1F	1r	2d	1a
.	.	.	2c	.
.	2G	1d	4B	2g
.	.	.	4c	.
.	2D	.	[2d	2f
=49	=49	=49	=49	=49
1r	1A	1e	4d]	2e
.	.	.	4c	.
.	.	.	4c	2cc
.	.	.	8d	.
.	.	.	8e	.
1D	1r	2d	1f	4b
.	.	.	.	4a
.	.	2c	.	[2a
=50	=50	=50	=50	=50
1E	2r	1B	1e	2a]
.	2B	.	.	2g#
2AA	4c	1A	2.e	2a
.	4B	.	.	.
2AA	[2A	.	.	2cc
.	.	.	4e	.
=51	=51	=51	=51	=51
[0E	2A]	[0B	[0e	[0b
.	2G#	.	.	.
.	1G#	.	.	.
=52	=52	=52	=52	=52
1E_	[0G#	1B_	1e_	1b_
1E_	.	1B_	1e_	1b_
=53	=53	=53	=53	=53
0E]	0G#]	0B]	0e]	0b]
!! Domine Deus Agnus
*Ibass	*Itenor	*Itenor	*Icalto	*Icant
!Bassus	!Tenor 2	!Tenor 1	!Altus	!Cantus
*clefF4	*clefGv2	*clefGv2	*clefG2	*clefG2
*k[]	*k[]	*k[]	*k[]	*k[]
*E:phr	*E:phr	*E:phr	*E:phr	*E:phr
*M4/2	*M4/2	*M4/2	*M4/2	*M4/2
=54	=54	=54	=54	=54
0r	0r	1B	1r	0r
.	.	1c	1e	.
=55	=55	=55	=55	=55
0r	0r	2A	1f	0r
.	.	2F	.	.
.	.	2G	2d	.
.	.	2A	2c	.
=56	=56	=56	=56	=56
1r	1B	0G	1d	0r
1E	[1c	.	1e	.
=57	=57	=57	=57	=57
1F	2c]	2r	2A	0r
.	2A	2c	2.f	.
2D	2B	2d	.	.
.	.	.	4d	.
2C	2c	2e	[2g	.
=58	=58	=58	=58	=58
1D	4B	2.d	4g]	1r
.	4A	.	4f	.
.	1A	.	2f	.
.	.	4c	.	.
1E	.	1B	1e	1b
.	2G#	.	.	.
=59	=59	=59	=59	=59
1AA	2A	1A	1.e	1cc
.	1c	.	.	.
1r	.	1r	.	2a
.	2B	.	2d	2g
=60	=60	=60	=60	=60
1r	2c	1r	2e	1a
.	2d	.	2f#	.
2r	4G	2r	1g	1b
.	4A	.	.	.
2E	4B	2G	.	.
.	4c	.	.	.
=61	=61	=61	=61	=61
2F	1d	2A	2r	0r
1G	.	1B	2d	.
.	2G	.	2e	.
4F	2A	[2A	[2f	.
4E	.	.	.	.
=62	=62	=62	=62	=62
2D	1B	2A]	2f]	0r
2E	.	2G	1e	.
1F	1A	2r	.	.
.	.	2A	2d	.
=63	=63	=63	=63	=63
1E	2r	2B	1e	1g
.	2E	1c	.	.
1r	2F	.	2r	2a
.	[2G	4B	2d	[2b
.	.	4A	.	.
=64	=64	=64	=64	=64
0r	2G]	2G	2e	2b]
.	4F	2A	1f	1a
.	4E	.	.	.
.	2D	1B	.	.
.	2E	.	4e	2g#
.	.	.	4d	.
=65	=65	=65	=65	=65
2r	1F	1A	2.c	2a
1A	.	.	.	1cc
.	.	.	4d	.
.	[1E	1r	1e	.
4G#	.	.	.	4b
4F#	.	.	.	4a
=66	=66	=66	=66	=66
2G#	1E]	0r	2e	2b
2G#	.	.	1e	2b
1A	1r	.	.	1cc
.	.	.	4d	.
.	.	.	4c	.
=67	=67	=67	=67	=67
2G	1r	1r	2d	2b
2F	.	.	2d	2a
2E	2r	2r	1e	1g
4C	[2e	[2c	.	.
4D	.	.	.	.
=68	=68	=68	=68	=68
4E	2e]	2c]	1g	1r
4F	.	.	.	.
1G	4d	4B	.	.
.	4c	4A	.	.
.	2d	2B	1G	1g
2G	2d	2B	.	.
=69	=69	=69	=69	=69
1C	1e	1c	2r	2g
.	.	.	2g	2e
1D	1d	[1A	2f	2.a
.	.	.	2f	.
.	.	.	.	4b
=70	=70	=70	=70	=70
0AA	0c	0A]	0e	1cc
.	.	.	.	1a
=71	=71	=71	=71	=71
[0E	[0B	[0G#	[0e	[0b
=72	=72	=72	=72	=72
0E]	0B]	0G#]	0e]	0b]
!! Qui tollis
*Ibass	*Itenor	*Itenor	*Icalto	*Icant
!Bassus	!Tenor 2	!Tenor 1	!Altus	!Cantus
*clefF4	*clefGv2	*clefGv2	*clefG2	*clefG2
*k[]	*k[]	*k[]	*k[]	*k[]
*E:phr	*E:phr	*E:phr	*E:phr	*E:phr
*M4/2	*M4/2	*M4/2	*M4/2	*M4/2
=73	=73	=73	=73	=73
0r	1A	0r	0r	0r
.	1G#	.	.	.
=74	=74	=74	=74	=74
0r	1A	0r	1r	1a
.	2r	.	1e	1g#
.	2E	.	.	.
=75	=75	=75	=75	=75
0r	2F#	0r	1d	2a
.	1G	.	.	1b
.	.	.	2e	.
.	[2A	.	2e	[2cc
=76	=76	=76	=76	=76
0r	4A]	0r	1f	4cc]
.	4G	.	.	4b
.	2.F	.	.	4a
.	.	.	.	4g
.	.	.	2.d	4f
.	4E	.	.	4g
.	4D	.	.	[2a
.	4E	.	4c	.
=77	=77	=77	=77	=77
0r	2F	0r	2d	2a]
.	2G	.	1e	2g
.	2A	.	.	1f
.	2B	.	2d	.
=78	=78	=78	=78	=78
1r	1c	1A	1e	0e
1E	2.B	1G#	2r	.
.	.	.	2e	.
.	4c	.	.	.
=79	=79	=79	=79	=79
1D	4d	2A	1f	0r
.	4c	.	.	.
.	4B	1B	.	.
.	4A	.	.	.
2E	1G	.	2e	.
2E	.	[2c	2e	.
=80	=80	=80	=80	=80
1F	0A	4c]	2c	0r
.	.	4B	.	.
.	.	4A	2c	.
.	.	4G	.	.
2.D	.	4F	[1d	.
.	.	4G	.	.
.	.	[2A	.	.
4C	.	.	.	.
=81	=81	=81	=81	=81
2D	0r	2A]	2d]	0r
1E	.	2G	2B	.
.	.	1F	1r	.
2D	.	.	.	.
=82	=82	=82	=82	=82
1E	2.B	1E	2r	1g
.	.	.	1e	.
.	8A	.	.	.
.	8B	.	.	.
1r	2c	1r	.	1a
.	2d	.	2f	.
=83	=83	=83	=83	=83
1C	2.e	1G	1g	1.cc
.	4d	.	.	.
[1F	2.c	1A	[1f	.
.	.	.	.	2cc
.	4B	.	.	.
=84	=84	=84	=84	=84
2F]	0A	1.c	2f]	2.cc
2F	.	.	2f	.
.	.	.	.	4b
1F	.	.	[1f	4cc
.	.	.	.	4b
.	.	2c	.	4a
.	.	.	.	4g#
=85	=85	=85	=85	=85
1F	2r	1c	1f]	1a
.	2A	.	.	.
2G	2B	1r	1e	1r
[2A	[2c	.	.	.
=86	=86	=86	=86	=86
2A]	2c]	2r	2f	0r
4G	2d	2B	1g	.
4F	.	.	.	.
2E	2G	2c	.	.
2D	2A	[2d	2f	.
=87	=87	=87	=87	=87
2E	2r	2d]	2g	0r
1F	2.A	2c	1a	.
.	.	2d	.	.
.	4B	.	.	.
4E	[2c	[2e	[2g	.
4D	.	.	.	.
=88	=88	=88	=88	=88
2C	4c]	2e]	2g]	0r
.	4B	.	.	.
2D	1A	2d	2.f	.
1E	.	2c	.	.
.	.	.	4e	.
.	2G	2B	[2e	.
=89	=89	=89	=89	=89
1F	2c	1A	2e]	1r
.	4B	.	2d	.
.	4A	.	.	.
1E	4G#	2B	[1e	1b
.	2A	.	.	.
.	.	[2E	.	.
.	4G#	.	.	.
=90	=90	=90	=90	=90
2AA	1A	2E]	2e]	2cc#
2D	.	2F	2d	1dd
1AA	2r	2E	1e	.
.	[2A	2E	.	2cc#
=91	=91	=91	=91	=91
1D	2A]	2D	1f	1dd
.	2B	2F	.	.
4C	1c	2.G	2e	1ee
4D	.	.	.	.
4E	.	.	[2g	.
4F	.	4A	.	.
=92	=92	=92	=92	=92
1G	2B	4B	2g]	1dd
.	.	4c	.	.
.	2.G	4d	2g	.
.	.	4B	.	.
2C	.	2.c	[1e	[1cc
.	4E	.	.	.
4AA	[2A	.	.	.
4BB	.	4d	.	.
=93	=93	=93	=93	=93
4C	2A]	2e	0e]	2cc]
4D	.	.	.	.
2E	2G#	2B	.	2b
1AA	1A	1c	.	1a
=94	=94	=94	=94	=94
[0E	[0G#	[0B	[0e	[0b
=95	=95	=95	=95	=95
0E]	0G#]	0B]	0e]	0b]
!! Quoniam
*Ibass	*Itenor	*Itenor	*Icalto	*Icant
!Bassus	!Tenor 2	!Tenor 1	!Altus	!Cantus
*clefF4	*clefGv2	*clefGv2	*clefG2	*clefG2
*k[]	*k[]	*k[]	*k[]	*k[]
*E:phr	*E:phr	*E:phr	*E:phr	*E:phr
*M4/2	*M4/2	*M4/2	*M4/2	*M4/2
=96	=96	=96	=96	=96
1r	0r	1B	0r	0r
1E	.	[1c	.	.
=97	=97	=97	=97	=97
1.F	0r	2c]	0r	0r
.	.	2B	.	.
.	.	2A	.	.
2E	.	2G	.	.
=98	=98	=98	=98	=98
2D	0r	2A	0r	0r
2C	.	2A	.	.
2D	.	4B	.	.
.	.	4A	.	.
2D	.	[2A	.	.
=99	=99	=99	=99	=99
2.E	1B	2A]	1r	0r
.	.	2G#	.	.
4D	.	.	.	.
4C	[1c	[1A	1e	.
4BB	.	.	.	.
2AA	.	.	.	.
=100	=100	=100	=100	=100
1D	2c]	2A]	1.f	0r
.	2B	2B	.	.
1C	2A	1c	.	.
.	2G	.	2e	.
=101	=101	=101	=101	=101
0r	2A	2.F	2d	1r
.	2A	.	2c	.
.	.	4A	.	.
.	1B	[1G	2d	1b
.	.	.	2d	.
=102	=102	=102	=102	=102
2.C	2.E	0G]	1.e	1.cc
4D	4F	.	.	.
4E	4G	.	.	.
4F	4A	.	.	.
2G	2B	.	4d	2b
.	.	.	4e	.
=103	=103	=103	=103	=103
2A	2c	0r	4f	2a
.	.	.	4e	.
2B	2d	.	1g	2g
2c	2e	.	.	2a
2d	[2d	.	2f	2a
=104	=104	=104	=104	=104
1G	2d]	1B	2.g	2.b
.	2G	.	.	.
.	.	.	4f	4a
1r	1r	1c	1e	2g
.	.	.	.	[2a
=105	=105	=105	=105	=105
1E	1B	1B	2r	2a]
.	.	.	1e	2g#
[1A	[1c	1A	.	1a
.	.	.	[2f	.
=106	=106	=106	=106	=106
2A]	2c]	0r	2f]	0r
2G	2B	.	2e	.
2F	2A	.	2d	.
2E	2G	.	2c	.
=107	=107	=107	=107	=107
2F	2A	2r	2d	2r
2G	2B	1G	2d	2b
2.C	[1E	.	[1e	1cc
.	.	[2A	.	.
4D	.	.	.	.
=108	=108	=108	=108	=108
1E	0E]	2A]	0e]	1b
.	.	2G	.	.
1AA	.	1c	.	1a
=109	=109	=109	=109	=109
[0E	[0E	[0B	[0e	[0g#
=110	=110	=110	=110	=110
0E]	0E]	0B]	0e]	0g#]
!! Tu solus Altissimus
*Ibass	*Itenor	*Itenor	*Icalto	*Icant
!Bassus	!Tenor 2	!Tenor 1	!Altus	!Cantus
*clefF4	*clefGv2	*clefGv2	*clefG2	*clefG2
*k[]	*k[]	*k[]	*k[]	*k[]
*E:phr	*E:phr	*E:phr	*E:phr	*E:phr
*M4/2	*M4/2	*M4/2	*M4/2	*M4/2
=111	=111	=111	=111	=111
1r	0r	1B	0r	0r
1E	.	1c	.	.
=112	=112	=112	=112	=112
1F	1r	1A	0r	0r
1E	1B	1G	.	.
=113	=113	=113	=113	=113
1C	1c	2A	1e	0r
.	.	2G	.	.
1D	1A	4F	1f	.
.	.	4E	.	.
.	.	4D	.	.
.	.	4C	.	.
=114	=114	=114	=114	=114
1BB	1G	1D	1d	0r
2AA	1A	1r	1c	.
[2A	.	.	.	.
=115	=115	=115	=115	=115
2A]	1.B	1r	2d	1r
4G#	.	.	2d	.
4F#	.	.	.	.
1G#	.	1E	1e	1b
.	2B	.	.	.
=116	=116	=116	=116	=116
1A	0A	2e	2r	1cc
.	.	1c	2e	.
1F	.	.	1f	1a
.	.	2d	.	.
=117	=117	=117	=117	=117
2.c	0r	2.e	2e	1g
.	.	.	2c	.
4B	.	4d	.	.
2A	.	2c	2e	2a
2A	.	2c	2f#	2a
=118	=118	=118	=118	=118
0G	1r	4d	1g	2b
.	.	4c	.	.
.	.	4B	.	1dd
.	.	4A	.	.
.	[1d	1B	1g	.
.	.	.	.	2cc
=119	=119	=119	=119	=119
0r	2d]	1r	2f	2b
.	2c	.	2e	2a
.	2B	2r	2d	2g
.	2A	[2e	2c	[2a
=120	=120	=120	=120	=120
1r	1B	2e]	1d	2a]
.	.	2d	.	2g#
[1A	2A	2.c	1e	1a
.	[2c	.	.	.
.	.	4B	.	.
=121	=121	=121	=121	=121
2A]	2c]	2A	1.a	0r
2G	2B	2B	.	.
2F	[1A	1c	.	.
2E	.	.	2g	.
=122	=122	=122	=122	=122
2D	2A]	2d	2f	0r
2E	2G	1c	1e	.
1F	1A	.	.	.
.	.	4B	2d	.
.	.	4A	.	.
=123	=123	=123	=123	=123
2.E	1B	1G	2e	2r
.	.	.	2B	1ee
4D	.	.	.	.
2C	[1e	2E	[1c	.
2BB	.	2G	.	2dd
=124	=124	=124	=124	=124
0AA	2e]	0A	2c]	2cc
.	2d	.	2d	2b
.	1c	.	1e	1a
=125	=125	=125	=125	=125
[0E	[0B	[0G#	[0e	[0b
=126	=126	=126	=126	=126
0E]	0B]	0G#]	0e]	0b]
!! Amen
*Ibass	*Itenor	*Itenor	*Icalto	*Icant
!Bassus	!Tenor 2	!Tenor 1	!Altus	!Cantus
*clefF4	*clefGv2	*clefGv2	*clefG2	*clefG2
*k[]	*k[]	*k[]	*k[]	*k[]
*E:phr	*E:phr	*E:phr	*E:phr	*E:phr
*M4/2	*M4/2	*M4/2	*M4/2	*M4/2
=127	=127	=127	=127	=127
0r	1A	0r	1r	0r
.	2.c	.	1A	.
.	4B	.	.	.
=128	=128	=128	=128	=128
0r	4A	0r	1c	1e
.	4G	.	.	.
.	2A	.	.	.
.	2G	.	2B	1g
.	2E	.	2c	.
=129	=129	=129	=129	=129
0r	2D	1r	2d	2f
.	2E	.	4c	2g
.	.	.	4B	.
.	1F	1A	4A	1a
.	.	.	4B	.
.	.	.	4c	.
.	.	.	4d	.
=130	=130	=130	=130	=130
0r	1C	1c	2.e	0g
.	.	.	4c	.
.	1r	2B	2d	.
.	.	2c	[2e	.
=131	=131	=131	=131	=131
0r	1D	1d	2e]	1f
.	.	.	2d	.
.	1A	1c	[1e	2.e
.	.	.	.	4f
=132	=132	=132	=132	=132
1E	2B	2B	1e]	0g
.	1c	2e	.	.
1G	.	[1d	1r	.
.	2B	.	.	.
=133	=133	=133	=133	=133
2F	2A	1d]	2r	2a
2G	2B	.	2d	4g
.	.	.	.	4f
1A	1c	2r	2c	2e
.	.	2c	2A	[2f
=134	=134	=134	=134	=134
1G	1B	2d	2B	2f]
.	.	2B	2G	1e
1F	1r	2c	1A	.
.	.	2A	.	2d
=135	=135	=135	=135	=135
0E	1r	1B	1e	2.g
.	.	.	.	4f
.	1B	1G	1g	1e
=136	=136	=136	=136	=136
2D	1d	1.A	2f	1.a
2E	.	.	2g	.
1F	2c	.	1a	.
.	2d	2F	.	2b
=137	=137	=137	=137	=137
1C	1e	2G	1g	1cc
.	.	2E	.	.
1D	1d	2.F	1f	1a
.	.	4G	.	.
=138	=138	=138	=138	=138
0AA	2.c	0A	0e	0cc
.	4B	.	.	.
.	1A	.	.	.
=139	=139	=139	=139	=139
[0E	[0B	[0G#	[0e	[0b
=140	=140	=140	=140	=140
0E]	0B]	0G#]	0e]	0b]
==	==	==	==	==
*-	*-	*-	*-	*-
!!!CDT: 1525/^1526/-1594/2/2
!!!OCY: Italia
!!!AGN: Mass (Paraphrase)
!!!AST: renaissance, vocal
!!!ASW: Gregorian Mass
!!!PWK: Masses, Book Mantuan I
!!!RNB: Cadence finals: A
!!!YOR: Le Opere Complete, v. 18, p. 42
!!!YOO: Rome, Italy: Fratelli Scalera
!!!END: 1992//
!!!EED: John Miller
!!!YEC: Copyright 2000, John Miller
!!!YEN: United States of America
!!!YEM: Rights to all derivative electronic formats reserved.
!!!YEM: Refer to licensing agreement for further details.
!!!YEM: This file must be accompanied by the licensing agreement.
!!!YEM: A copy of the licensing agreement may be found at http://www.music-cog.ohio-state.edu/HumdrumDatabases/Palestrina/license.txt
!!!EMD: converted to Humdrum by Bret Aarden
